outputs/icons/device/bluetooth_disabled_round.svg

<svg xmlns="http://www.w3.org/2000/svg" width="1200" height="1200" fill="none"><g clip-path="url(#a)"><path fill="#000" d="M964.5 894.505 305.498 235.002c-19.5-19.499-50.999-19.499-70.499 0-19.501 19.5-19.501 51 0 70.5L529.5 600.005l-244.501 244.5c-19.501 19.5-19.501 51 0 70.5 19.499 19.5 50.999 19.5 70.499 0L550 720.505v309c0 44.5 54 66.995 85.5 35.5l179.5-179.5 79.5 79.5c19.5 19.5 51 19.5 70.5 0 19-19.5 19-51.5-.5-70.5m-314.5 14v-188l94 94zm0-617.003 94 94-73.5 73.5 70.5 70.503 109-108.503c19.5-19.5 19.5-51 0-71l-214.5-214.5c-31.5-31.5-85.5-9.5-85.5 35v168l100 100z"/></g><defs><clipPath id="a"><path fill="#fff" d="M0 0h1200v1200H0z"/></clipPath></defs></svg>

<svg width="1200" height="1200" viewBox="0 0 1200 1200" fill="none" xmlns="http://www.w3.org/2000/svg"><g clip-path="url(#clip0_231_4438)"><path d="M964.5 894.505L305.498 235.002C285.998 215.503 254.499 215.503 234.999 235.002C215.498 254.502 215.498 286.002 234.999 305.502L529.5 600.005L284.999 844.505C265.498 864.005 265.498 895.505 284.999 915.005C304.498 934.505 335.998 934.505 355.498 915.005L550 720.505V1029.505C550 1074.005 604 1096.5 635.5 1065.005L815 885.505L894.5 965.005C914 984.505 945.5 984.505 965 965.005C984 945.505 984 913.505 964.5 894.505ZM650 908.505V720.505L744 814.505L650 908.505ZM650 291.502L744 385.502L670.5 459.002L741 529.505L850 421.002C869.5 401.502 869.5 370.002 850 350.002L635.5 135.502C604 104.002 550 126.002 550 170.502V338.502L650 438.502V291.502Z" fill="black"/></g><defs><clipPath id="clip0_231_4438"><path width="24" fill="white" d="M0 0H1200V1200H0V0z"/></clipPath></defs></svg>
